assets/icons/traton/message_inactive.svg

<svg xmlns="http://www.w3.org/2000/svg" width="32" height="32" viewBox="0 0 32 32" fill="none">
<path d="M27.9927 26.5887L26.5776 28L4.00409 5.41037L5.42011 4L27.9927 26.5887ZM3.99878 8.22379V24.4333L11.2449 21.0156H16.782L18.7791 23.0132H11.6931L1.99878 27.5857V6.22235L3.99878 8.22379ZM29.9998 4.07168V23.0132H27.2029L25.2068 21.0156H27.9998V6.06532L10.2429 6.04191L8.24487 4.04242L29.9998 4.07168Z" fill="#001D21" />
</svg>

<svg xmlns="http://www.w3.org/2000/svg" fill="none" viewBox="0 0 32 32"><path fill="#001d21" d="M28 26.6 26.6 28 4 5.4 5.4 4zM4 8.2v16.2l7.2-3.4h5.6l2 2h-7.1L2 27.6V6.2zm26-4.1v19h-2.8l-2-2H28V6H10.2l-2-2z"/></svg>
